build/svg/cmd/lc_insertreferencefield.svg

<?xml version="1.0" encoding="UTF-8" standalone="no"?>
<svg
   xmlns:dc="http://purl.org/dc/elements/1.1/"
   xmlns:cc="http://creativecommons.org/ns#"
   xmlns:rdf="http://www.w3.org/1999/02/22-rdf-syntax-ns#"
   xmlns:svg="http://www.w3.org/2000/svg"
   xmlns="http://www.w3.org/2000/svg"
   xmlns:sodipodi="http://sodipodi.sourceforge.net/DTD/sodipodi-0.dtd"
   xmlns:inkscape="http://www.inkscape.org/namespaces/inkscape"
   viewBox="0 0 24 24"
   version="1.1"
   id="svg6"
   sodipodi:docname="lc_insertreferencefield.svg"
   inkscape:version="0.92.4 (5da689c313, 2019-01-14)"
   inkscape:export-filename="/home/jupiter007/Libreoffice yaru theme fullcolor/build/cmd/lc_insertreferencefield.png"
   inkscape:export-xdpi="95"
   inkscape:export-ydpi="95">
  <metadata
     id="metadata12">
    <rdf:RDF>
      <cc:Work
         rdf:about="">
        <dc:format>image/svg+xml</dc:format>
        <dc:type
           rdf:resource="http://purl.org/dc/dcmitype/StillImage" />
      </cc:Work>
    </rdf:RDF>
  </metadata>
  <defs
     id="defs10" />
  <sodipodi:namedview
     pagecolor="#ffffff"
     bordercolor="#666666"
     borderopacity="1"
     objecttolerance="10"
     gridtolerance="10"
     guidetolerance="10"
     inkscape:pageopacity="0"
     inkscape:pageshadow="2"
     inkscape:window-width="1920"
     inkscape:window-height="1011"
     id="namedview8"
     showgrid="true"
     inkscape:zoom="19.666667"
     inkscape:cx="9.2769736"
     inkscape:cy="7.3019426"
     inkscape:window-x="1920"
     inkscape:window-y="32"
     inkscape:window-maximized="1"
     inkscape:current-layer="svg6">
    <inkscape:grid
       type="xygrid"
       id="grid814" />
  </sodipodi:namedview>
  <path
     sodipodi:nodetypes="cccscsccccccccscscccccc"
     inkscape:connector-curvature="0"
     id="path4237-1"
     d="M 7,3 C 5.7418,3.0145 4.821109,2.969396 4.068359,3.3847656 3.691989,3.5924256 3.395128,3.9441525 3.230468,4.3828125 3.065798,4.8214825 3.005859,5.3424 3.005859,6 V 7.4882811 18.000583 c 0,0.65761 0.0599,1.178577 0.224609,1.617188 0.16468,0.438611 0.461531,0.788524 0.837891,0.996093 C 4.821079,21.028994 5.7419,20.985513 7,21.000583 h 0.002 10.005859 0.0039 c 1.25819,-0.0145 2.178891,0.0306 2.931641,-0.384766 0.37637,-0.20766 0.673221,-0.559386 0.837891,-0.998046 0.164539,-0.438671 0.224618,-0.959578 0.224618,-1.617188 V 7.4667971 6 c 0,-0.6576 -0.0599,-1.1785775 -0.224609,-1.6171875 C 20.61662,3.9442125 20.319769,3.5942787 19.943409,3.3867188 19.190639,2.9715888 18.269808,3.01508 17.011718,3 h -0.002 -10.005859 z"
     style="font-style:normal;font-variant:normal;font-weight:normal;font-stretch:normal;font-size:15px;line-height:125%;font-family:Ubuntu;-inkscape-font-specification:Ubuntu;text-align:center;letter-spacing:0px;word-spacing:0px;writing-mode:lr-tb;text-anchor:middle;display:inline;opacity:0.6;fill:#000000;fill-opacity:1;stroke:none;stroke-width:0.99980211" />
  <path
     inkscape:connector-curvature="0"
     id="path1993"
     d="M 11.989228,4.0271848 C 10.432647,4.0379808 6.879238,4.0154328 5.329287,4.0659598 4.868058,4.1086278 4.313099,4.2723792 4.173947,4.7759266 3.954953,5.411273 4.065533,6.1097138 4.028151,6.7578509 c -0.0078,2.2970846 -0.02297,9.5964281 0.02152,11.8857801 0.0391,0.461929 0.202551,1.012666 0.698756,1.163666 0.632456,0.225082 1.284144,0.12274 1.935974,0.154298 1.424235,0.0068 4.850563,0.01102 6.27642,0.01131 1.704531,3.5e-4 3.408388,-0.005 5.10719,-0.01851 0.511911,-0.01201 1.183699,0.01993 1.584745,-0.405191 0.421097,-0.539783 0.287073,-1.268021 0.322745,-1.903787 0.01187,-2.444323 0.02769,-9.9110949 -0.0219,-12.3567945 C 19.904325,4.8865822 19.783609,4.4256704 19.378462,4.2441473 18.710293,3.9500499 17.952257,4.0761284 17.252541,4.0385746 15.498134,4.026772 13.743667,4.0260902 11.989228,4.0271848 Z"
     style="opacity:1;vector-effect:none;fill:#ffffff;fill-opacity:1;stroke:none;stroke-width:1;stroke-linecap:round;stroke-linejoin:bevel;stroke-miterlimit:4;stroke-dasharray:none;stroke-dashoffset:0;stroke-opacity:1"
     sodipodi:nodetypes="cccccccsccccccc" />
  <path
     style="fill:#000000;fill-opacity:1;stroke-width:0.91237915"
     d="m 8,10 v 1 h 9.989228 v -1 z"
     id="path871"
     inkscape:connector-curvature="0" />
  <circle
     style="opacity:1;vector-effect:none;fill:#46a926;fill-opacity:1;stroke:none;stroke-width:3.49999976;stroke-linecap:butt;stroke-linejoin:round;stroke-miterlimit:4;stroke-dasharray:none;stroke-dashoffset:0;stroke-opacity:1"
     id="path2644"
     cy="18.5"
     cx="18.489227"
     r="3.5" />
  <path
     inkscape:connector-curvature="0"
     id="path1063"
     overflow="visible"
     font-weight="400"
     style="color:#000000;font-weight:400;line-height:normal;font-family:sans-serif;text-indent:0;text-align:start;text-decoration:none;text-decoration-line:none;text-decoration-style:solid;text-decoration-color:#000000;text-transform:none;white-space:normal;overflow:visible;isolation:auto;mix-blend-mode:normal;fill:#ffffff;fill-opacity:1;marker:none"
     d="m 17.989228,16 v 2 h -2.000001 v 1 h 2.000001 v 2 h 1 v -2 h 2 v -1 h -2 v -2 z" />
  <path
     id="path875"
     d="m 8,13 v 1 h 10 v -1 z"
     style="fill:#000000;fill-opacity:1;stroke-width:0.91287094"
     inkscape:connector-curvature="0" />
  <path
     d="m 6,7 v 1 8 1 h 7 V 16 H 7 V 8 h 6 V 7 Z"
     id="path4"
     inkscape:connector-curvature="0"
     style="fill:#fa9381;fill-opacity:1"
     sodipodi:nodetypes="ccccccccccc" />
</svg>

<svg xmlns="http://www.w3.org/2000/svg" viewBox="0 0 24 24"><path d="M7 3c-1.258.014-2.179-.03-2.932.385a1.88 1.88 0 00-.838.998c-.164.438-.224.96-.224 1.617v12.001c0 .657.06 1.178.224 1.617.165.438.462.788.838.996.753.415 1.674.372 2.932.387h10.012c1.258-.015 2.179.03 2.931-.385a1.88 1.88 0 00.838-.998c.165-.439.225-.96.225-1.617V6c0-.658-.06-1.179-.225-1.617a1.875 1.875 0 00-.838-.996c-.752-.415-1.673-.372-2.931-.387H7.004z" style="line-height:125%;-inkscape-font-specification:Ubuntu;text-align:center" font-weight="400" font-size="15" font-family="Ubuntu" letter-spacing="0" word-spacing="0" text-anchor="middle" opacity=".6"/><path d="M11.99 4.027c-1.557.011-5.11-.012-6.66.039-.462.043-1.017.206-1.156.71-.219.635-.108 1.334-.146 1.982-.008 2.297-.023 9.596.022 11.886.039.462.202 1.012.698 1.163.633.225 1.285.123 1.936.155 1.425.006 4.851.01 6.277.01 1.704.001 3.408-.004 5.107-.018.512-.012 1.184.02 1.585-.405.42-.54.287-1.268.323-1.904.011-2.444.027-9.91-.022-12.356-.05-.402-.17-.863-.576-1.045-.668-.294-1.426-.168-2.125-.205a715.985 715.985 0 00-5.264-.012z" fill="#fff"/><path d="M8 10v1h9.99v-1z"/><circle cy="18.5" cx="18.489" r="3.5" fill="#46a926"/><path overflow="visible" font-weight="400" style="line-height:normal;text-indent:0;text-align:start;text-decoration-line:none;text-decoration-style:solid;text-decoration-color:#000;text-transform:none;white-space:normal;isolation:auto;mix-blend-mode:normal;marker:none" d="M17.99 16v2h-2v1h2v2h1v-2h2v-1h-2v-2z" color="#000" font-family="sans-serif" fill="#fff"/><path d="M8 13v1h10v-1z"/><path d="M6 7v10h7v-1H7V8h6V7z" fill="#fa9381"/></svg>
